Numix-Light/16/status/indicator-keyboard-No-6.svg

<?xml version="1.0" encoding="UTF-8" standalone="no"?>
<svg
   xmlns:dc="http://purl.org/dc/elements/1.1/"
   xmlns:cc="http://creativecommons.org/ns#"
   xmlns:rdf="http://www.w3.org/1999/02/22-rdf-syntax-ns#"
   xmlns:svg="http://www.w3.org/2000/svg"
   xmlns="http://www.w3.org/2000/svg"
   xmlns:sodipodi="http://sodipodi.sourceforge.net/DTD/sodipodi-0.dtd"
   xmlns:inkscape="http://www.inkscape.org/namespaces/inkscape"
   viewBox="0 0 16 16"
   id="svg2"
   version="1.1"
   inkscape:version="0.91 r13725"
   sodipodi:docname="indicator-keyboard-No-6.svg">
  <metadata
     id="metadata14">
    <rdf:RDF>
      <cc:Work
         rdf:about="">
        <dc:format>image/svg+xml</dc:format>
        <dc:type
           rdf:resource="http://purl.org/dc/dcmitype/StillImage" />
      </cc:Work>
    </rdf:RDF>
  </metadata>
  <defs
     id="defs12" />
  <sodipodi:namedview
     pagecolor="#ffffff"
     bordercolor="#666666"
     borderopacity="1"
     objecttolerance="10"
     gridtolerance="10"
     guidetolerance="10"
     inkscape:pageopacity="0"
     inkscape:pageshadow="2"
     inkscape:window-width="640"
     inkscape:window-height="480"
     id="namedview10"
     showgrid="false"
     inkscape:zoom="14.75"
     inkscape:cx="8"
     inkscape:cy="8"
     inkscape:window-x="65"
     inkscape:window-y="24"
     inkscape:window-maximized="0"
     inkscape:current-layer="svg2" />
  <path
     style="fill:#353535;fill-opacity:1"
     d="M 1.5996094 0 C 0.71320937 2.9605947e-16 0 0.71320937 0 1.5996094 L 0 14.400391 C 2.9605947e-16 15.286791 0.71320937 16 1.5996094 16 L 14.400391 16 C 15.286791 16 16 15.286791 16 14.400391 L 16 1.5996094 C 16 0.71320937 15.286791 0 14.400391 0 L 1.5996094 0 z M 1.1210938 4.859375 L 1.6074219 4.859375 C 1.9134219 5.201375 2.2398906 5.596875 2.5878906 6.046875 C 2.9418906 6.490875 3.2870469 6.9460625 3.6230469 7.4140625 C 3.9590469 7.8760625 4.2705937 8.3294375 4.5585938 8.7734375 C 4.8525937 9.2174375 5.0932969 9.6055469 5.2792969 9.9355469 L 5.2792969 4.859375 L 5.8828125 4.859375 L 5.8828125 11.095703 L 5.3691406 11.095703 C 5.2551406 10.885703 5.1077344 10.639422 4.9277344 10.357422 C 4.7537344 10.075422 4.5615625 9.7750312 4.3515625 9.4570312 C 4.1415625 9.1330313 3.9195469 8.80475 3.6855469 8.46875 C 3.4515469 8.12675 3.218375 7.7965156 2.984375 7.4785156 C 2.756375 7.1545156 2.5305938 6.8503594 2.3085938 6.5683594 C 2.0925938 6.2863594 1.8986094 6.0438437 1.7246094 5.8398438 L 1.7246094 11.095703 L 1.1210938 11.095703 L 1.1210938 4.859375 z M 9.3105469 6.3359375 C 9.6225469 6.3359375 9.9080157 6.395625 10.166016 6.515625 C 10.424016 6.629625 10.646031 6.7937656 10.832031 7.0097656 C 11.024031 7.2197656 11.171438 7.4753906 11.273438 7.7753906 C 11.381438 8.0753906 11.435547 8.4074375 11.435547 8.7734375 C 11.435547 9.1394375 11.381438 9.4734375 11.273438 9.7734375 C 11.171438 10.073438 11.024031 10.327109 10.832031 10.537109 C 10.646031 10.747109 10.424016 10.913203 10.166016 11.033203 C 9.9080157 11.147203 9.6225469 11.203125 9.3105469 11.203125 C 8.9985469 11.203125 8.7150313 11.147203 8.4570312 11.033203 C 8.1990312 10.913203 7.97325 10.747109 7.78125 10.537109 C 7.59525 10.327109 7.4478438 10.073438 7.3398438 9.7734375 C 7.2378438 9.4734375 7.1875 9.1394375 7.1875 8.7734375 C 7.1875 8.4074375 7.2378438 8.0753906 7.3398438 7.7753906 C 7.4478437 7.4753906 7.59525 7.2197656 7.78125 7.0097656 C 7.97325 6.7937656 8.1990312 6.629625 8.4570312 6.515625 C 8.7150313 6.395625 8.9985469 6.3359375 9.3105469 6.3359375 z M 9.3105469 6.8652344 C 8.8485469 6.8652344 8.4828906 7.0406719 8.2128906 7.3886719 C 7.9428906 7.7306719 7.8085938 8.1914375 7.8085938 8.7734375 C 7.8085938 9.3554375 7.9428906 9.818156 8.2128906 10.160156 C 8.4828906 10.502156 8.8485469 10.673828 9.3105469 10.673828 C 9.7725468 10.673828 10.138203 10.502156 10.408203 10.160156 C 10.678203 9.8181561 10.814453 9.3554375 10.814453 8.7734375 C 10.814453 8.1914375 10.678203 7.7306719 10.408203 7.3886719 C 10.138203 7.0406719 9.7725468 6.8652344 9.3105469 6.8652344 z M 14.609375 8.8242188 L 14.632812 9.1464844 C 14.394913 9.1620844 14.175456 9.1993125 13.972656 9.2578125 C 13.773756 9.3124125 13.595453 9.4005844 13.439453 9.5214844 C 13.283453 9.6384843 13.152175 9.7893625 13.046875 9.9765625 C 12.941575 10.163763 12.871031 10.394969 12.832031 10.667969 C 12.937331 10.613369 13.062737 10.566344 13.210938 10.527344 C 13.359138 10.484444 13.517847 10.462891 13.685547 10.462891 C 13.903947 10.462891 14.088134 10.498159 14.240234 10.568359 C 14.392334 10.634659 14.515775 10.722838 14.609375 10.835938 C 14.702975 10.949038 14.771553 11.080316 14.814453 11.228516 C 14.857353 11.376716 14.878906 11.533466 14.878906 11.697266 C 14.878906 11.849366 14.855394 12.000244 14.808594 12.152344 C 14.761794 12.304444 14.687338 12.443559 14.585938 12.568359 C 14.488438 12.689259 14.363037 12.789187 14.210938 12.867188 C 14.062737 12.945188 13.886387 12.984375 13.679688 12.984375 C 13.254587 12.984375 12.931284 12.835463 12.708984 12.539062 C 12.490584 12.238762 12.380859 11.821409 12.380859 11.287109 C 12.380859 10.495409 12.570919 9.8958281 12.949219 9.4863281 C 13.331419 9.0768281 13.883975 8.8554188 14.609375 8.8242188 z M 13.650391 10.794922 C 13.470991 10.794922 13.312281 10.816475 13.175781 10.859375 C 13.043181 10.898375 12.919734 10.9454 12.802734 11 C 12.794934 11.0663 12.791016 11.119203 12.791016 11.158203 L 12.791016 11.292969 C 12.791016 11.476269 12.802772 11.650653 12.826172 11.814453 C 12.853472 11.978253 12.898544 12.121294 12.964844 12.246094 C 13.035044 12.370894 13.127134 12.470822 13.240234 12.544922 C 13.353334 12.615122 13.498328 12.650391 13.673828 12.650391 C 13.818128 12.650391 13.941569 12.624919 14.042969 12.574219 C 14.144369 12.519619 14.224709 12.449081 14.287109 12.363281 C 14.349509 12.277481 14.394575 12.177553 14.421875 12.064453 C 14.453075 11.951353 14.46875 11.833784 14.46875 11.708984 C 14.46875 11.396984 14.398212 11.165778 14.257812 11.017578 C 14.121312 10.869378 13.919491 10.794922 13.650391 10.794922 z "
     id="path4" />
</svg>

<svg xmlns="http://www.w3.org/2000/svg" viewBox="0 0 16 16">
 <path d="m 1.6 0 c -0.886 0 -1.6 0.713 -1.6 1.6 l 0 12.801 c 0 0.886 0.713 1.6 1.6 1.6 l 12.801 0 c 0.886 0 1.6 -0.713 1.6 -1.6 l 0 -12.801 c 0 -0.886 -0.713 -1.6 -1.6 -1.6 l -12.801 0 z m -0.479 4.859 l 0.486 0 c 0.306 0.342 0.632 0.737 0.98 1.188 c 0.354 0.444 0.699 0.899 1.035 1.367 c 0.336 0.462 0.648 0.915 0.936 1.359 c 0.294 0.444 0.535 0.832 0.721 1.162 l 0 -5.076 l 0.604 0 l 0 6.236 l -0.514 0 c -0.114 -0.21 -0.261 -0.456 -0.441 -0.738 c -0.174 -0.282 -0.366 -0.582 -0.576 -0.9 c -0.21 -0.324 -0.432 -0.652 -0.666 -0.988 c -0.234 -0.342 -0.467 -0.672 -0.701 -0.99 c -0.228 -0.324 -0.454 -0.628 -0.676 -0.91 c -0.216 -0.282 -0.41 -0.525 -0.584 -0.729 l 0 5.256 l -0.604 0 l 0 -6.236 z m 8.189 1.477 c 0.312 0 0.597 0.06 0.855 0.18 c 0.258 0.114 0.48 0.278 0.666 0.494 c 0.192 0.21 0.339 0.466 0.441 0.766 c 0.108 0.3 0.162 0.632 0.162 0.998 c 0 0.366 -0.054 0.7 -0.162 1 c -0.102 0.3 -0.249 0.554 -0.441 0.764 c -0.186 0.21 -0.408 0.376 -0.666 0.496 c -0.258 0.114 -0.543 0.17 -0.855 0.17 c -0.312 0 -0.596 -0.056 -0.854 -0.17 c -0.258 -0.12 -0.484 -0.286 -0.676 -0.496 c -0.186 -0.21 -0.333 -0.464 -0.441 -0.764 c -0.102 -0.3 -0.152 -0.634 -0.152 -1 c 0 -0.366 0.05 -0.698 0.152 -0.998 c 0.108 -0.3 0.255 -0.556 0.441 -0.766 c 0.192 -0.216 0.418 -0.38 0.676 -0.494 c 0.258 -0.12 0.542 -0.18 0.854 -0.18 z m 0 0.529 c -0.462 0 -0.828 0.175 -1.098 0.523 c -0.27 0.342 -0.404 0.803 -0.404 1.385 c 0 0.582 0.134 1.045 0.404 1.387 c 0.27 0.342 0.636 0.514 1.098 0.514 c 0.462 0 0.828 -0.172 1.098 -0.514 c 0.27 -0.342 0.406 -0.805 0.406 -1.387 c 0 -0.582 -0.136 -1.043 -0.406 -1.385 c -0.27 -0.348 -0.636 -0.523 -1.098 -0.523 z m 5.299 1.959 l 0.023 0.322 c -0.238 0.016 -0.457 0.053 -0.66 0.111 c -0.199 0.055 -0.377 0.143 -0.533 0.264 c -0.156 0.117 -0.287 0.268 -0.393 0.455 c -0.105 0.187 -0.176 0.418 -0.215 0.691 c 0.105 -0.055 0.231 -0.102 0.379 -0.141 c 0.148 -0.043 0.307 -0.064 0.475 -0.064 c 0.218 0 0.403 0.035 0.555 0.105 c 0.152 0.066 0.276 0.154 0.369 0.268 c 0.094 0.113 0.162 0.244 0.205 0.393 c 0.043 0.148 0.064 0.305 0.064 0.469 c 0 0.152 -0.024 0.303 -0.07 0.455 c -0.047 0.152 -0.121 0.291 -0.223 0.416 c -0.098 0.121 -0.223 0.221 -0.375 0.299 c -0.148 0.078 -0.325 0.117 -0.531 0.117 c -0.425 0 -0.748 -0.149 -0.971 -0.445 c -0.218 -0.3 -0.328 -0.718 -0.328 -1.252 c 0 -0.792 0.19 -1.391 0.568 -1.801 c 0.382 -0.409 0.935 -0.631 1.66 -0.662 z m -0.959 1.971 c -0.179 0 -0.338 0.022 -0.475 0.064 c -0.133 0.039 -0.256 0.086 -0.373 0.141 c -0.008 0.066 -0.012 0.119 -0.012 0.158 l 0 0.135 c 0 0.183 0.012 0.358 0.035 0.521 c 0.027 0.164 0.072 0.307 0.139 0.432 c 0.07 0.125 0.162 0.225 0.275 0.299 c 0.113 0.07 0.258 0.105 0.434 0.105 c 0.144 0 0.268 -0.025 0.369 -0.076 c 0.101 -0.055 0.182 -0.125 0.244 -0.211 c 0.062 -0.086 0.107 -0.186 0.135 -0.299 c 0.031 -0.113 0.047 -0.231 0.047 -0.355 c 0 -0.312 -0.071 -0.543 -0.211 -0.691 c -0.136 -0.148 -0.338 -0.223 -0.607 -0.223 z" style="fill:#353535;fill-opacity:1"/>
</svg>
